X: 29504
T: Nina's
R: jig
M: 6/8
K: Amajor
|:FAB c2B|BAc BAE|FAB ~c3|Bce f3|
FAB c2B|BAc BAB|BAc BAF|1 AFE F3:|2 AFE F3||
|:~f3 ecB|BAc BAF|f3 ecA|Bce f2f|
fea efa|fec BAB|BAc BAF|1 AFE FAc:|2 AFE F3||

